icons/file-xml-16.svg

<?xml version="1.0" encoding="UTF-8"?><svg id="icons" xmlns="http://www.w3.org/2000/svg" viewBox="0 0 16 16"><defs><style>.cls-1{fill:none;}.cls-1,.cls-2{stroke-width:0px;}</style></defs><rect class="cls-1" width="16" height="16"/><path class="cls-2" d="M11.40039,0H2v8h1V1h7v4h4v10H3v-1h-1v2h13V3.59961l-3.59961-3.59961ZM14,4h-3V1h.31049l2.68951,2.68951v.31049ZM12,13h-1v-6h1v6ZM10,10.5v2.5h-1v-2.5c0-.27539-.22461-.5-.5-.5s-.5.22461-.5.5v2.5h-1v-2.5c0-.27539-.22461-.5-.5-.5s-.5.22461-.5.5v2.5h-1v-4h1v.0921c.15717-.05603.32385-.0921.5-.0921.38556,0,.73401.15027,1,.39014.26599-.23987.61444-.39014,1-.39014.82715,0,1.5.67285,1.5,1.5ZM1.89844,10.89978l-1.20416-1.89978h1.18298l.61261.96649.61249-.96649h1.18286l-1.20386,1.89972,1.33124,2.10028h-1.18298l-.73969-1.16699-.7395,1.16699H.5675l1.33093-2.10022Z"/></svg>

<svg xmlns="http://www.w3.org/2000/svg" viewBox="0 0 16 16"><path stroke-width="0" fill="none" d="M0 0h16v16H0z"/><path d="M11.4 0H2v8h1V1h7v4h4v10H3v-1H2v2h13V3.6L11.4 0zM14 4h-3V1h.31L14 3.69V4zm-2 9h-1V7h1v6zm-2-2.5V13H9v-2.5a.501.501 0 0 0-1 0V13H7v-2.5a.501.501 0 0 0-1 0V13H5V9h1v.092c.157-.056.324-.092.5-.092.386 0 .734.15 1 .39.266-.24.614-.39 1-.39.827 0 1.5.673 1.5 1.5zm-8.102.4L.694 9h1.183l.613.966L3.102 9h1.183l-1.204 1.9L4.413 13H3.23l-.74-1.167L1.75 13H.567l1.331-2.1z" stroke-width="0"/></svg>
